X:1
T: The Maids of Kilmallock
C:
R:Reel
Q: 232
K:D
M:4/4
L:1/8
dB|AD ((3FED) A2 AB|AD FA BE E2|AD FA Be ed|cA Bc de dB|
AD ((3FED) A2 AB|AD FA BE E2|AD FA Be ed|cA Bc d2 A2|
|:d2 d2 df ed|cA ((3AAA) ec Ac|d2 dc df ed|cA Bc d2 A2|
de fg af ed|cA ((3AAA) ec Ag|af ge fd ed|cA Bc de dB:|
AD ((3FED) A2 AB|AD FA BE E2|AD FA Be ed|cA Bc de dB|
AD ((3FED) A2 AB|AD FA BE E2|AD FA Be ed|cA Bc d2||
